X:1082
T:Ballydesmond
M:2/4
L:1/8
R:Polka
K:D
F|G2F2|EF/2E/2 DE|FA BA|d2BA|Be d/2e/2d/2B/2|AF DE/2F/2|GB AF|1E3:|2E2 E
2|:Be e>d|Bd d>A|Be ef|d2 BA|Be d/2e/2d/2B/2|AF DE/2F/2|GB AF|E2 E2:|


